collections/assainissement/svg_nb/ASS_BASSINE_C.svg

<?xml version="1.0" encoding="UTF-8"?>
<svg id="svg2454" width="100" height="100" version="1.1" xmlns="http://www.w3.org/2000/svg" xmlns:cc="http://creativecommons.org/ns#" xmlns:dc="http://purl.org/dc/elements/1.1/" xmlns:rdf="http://www.w3.org/1999/02/22-rdf-syntax-ns#">
 <metadata id="metadata829">
  <rdf:RDF>
   <cc:Work rdf:about="">
    <dc:format>image/svg+xml</dc:format>
    <dc:type rdf:resource="http://purl.org/dc/dcmitype/StillImage"/>
    <cc:license rdf:resource="http://creativecommons.org/licenses/by-sa/4.0/"/>
    <dc:creator>
     <cc:Agent>
      <dc:title>ASTEE</dc:title>
     </cc:Agent>
    </dc:creator>
    <dc:contributor>
     <cc:Agent>
      <dc:title>ASTEE; Le Grand Lyon</dc:title>
     </cc:Agent>
    </dc:contributor>
    <dc:language>FR</dc:language>
    <dc:subject>
     <rdf:Bag>
      <rdf:li>eau</rdf:li>
      <rdf:li>potable</rdf:li>
      <rdf:li>assainissement</rdf:li>
     </rdf:Bag>
    </dc:subject>
    <dc:date/>
   </cc:Work>
   <cc:License rdf:about="http://creativecommons.org/licenses/by-sa/4.0/">
    <cc:permits rdf:resource="http://creativecommons.org/ns#Reproduction"/>
    <cc:permits rdf:resource="http://creativecommons.org/ns#Distribution"/>
    <cc:requires rdf:resource="http://creativecommons.org/ns#Notice"/>
    <cc:requires rdf:resource="http://creativecommons.org/ns#Attribution"/>
    <cc:permits rdf:resource="http://creativecommons.org/ns#DerivativeWorks"/>
    <cc:requires rdf:resource="http://creativecommons.org/ns#ShareAlike"/>
   </cc:License>
  </rdf:RDF>
 </metadata>
 <path id="path2448" d="m1.5563 2.1391h96.888v95.722h-96.888z" fill="#fff"/>
 <path id="path2450" d="m0.39552 0.39546v99.21h99.208v-99.21zm4.1348 4.1366h90.937v90.938h-90.937zm5.168 45.467a40.305 40.305 0 0 0 20.152 34.905 40.313 40.313 0 0 0 40.309 0 40.314 40.314 0 0 0 20.152-34.905z"/>
</svg>

<?xml version="1.0" encoding="UTF-8" standalone="no"?>
<svg
   width="100"
   height="100"
   version="1.1"
   id="svg2454"
   sodipodi:docname="ASS_BASSINE_C.svg"
   inkscape:version="1.1.1 (3bf5ae0d25, 2021-09-20)"
   xmlns:inkscape="http://www.inkscape.org/namespaces/inkscape"
   xmlns:sodipodi="http://sodipodi.sourceforge.net/DTD/sodipodi-0.dtd"
   xmlns="http://www.w3.org/2000/svg"
   xmlns:svg="http://www.w3.org/2000/svg"
   xmlns:rdf="http://www.w3.org/1999/02/22-rdf-syntax-ns#"
   xmlns:cc="http://creativecommons.org/ns#"
   xmlns:dc="http://purl.org/dc/elements/1.1/">
  <metadata
     id="metadata829">
    <rdf:RDF>
      <cc:Work
         rdf:about="">
        <dc:format>image/svg+xml</dc:format>
        <dc:type
           rdf:resource="http://purl.org/dc/dcmitype/StillImage" />
        <cc:license
           rdf:resource="http://creativecommons.org/licenses/by-sa/4.0/" />
        <dc:creator>
          <cc:Agent>
            <dc:title>ASTEE</dc:title>
          </cc:Agent>
        </dc:creator>
        <dc:contributor>
          <cc:Agent>
            <dc:title>ASTEE; Le Grand Lyon</dc:title>
          </cc:Agent>
        </dc:contributor>
        <dc:language>FR</dc:language>
        <dc:subject>
          <rdf:Bag>
            <rdf:li>eau</rdf:li>
            <rdf:li>potable</rdf:li>
            <rdf:li>assainissement</rdf:li>
          </rdf:Bag>
        </dc:subject>
        <dc:date />
      </cc:Work>
      <cc:License
         rdf:about="http://creativecommons.org/licenses/by-sa/4.0/">
        <cc:permits
           rdf:resource="http://creativecommons.org/ns#Reproduction" />
        <cc:permits
           rdf:resource="http://creativecommons.org/ns#Distribution" />
        <cc:requires
           rdf:resource="http://creativecommons.org/ns#Notice" />
        <cc:requires
           rdf:resource="http://creativecommons.org/ns#Attribution" />
        <cc:permits
           rdf:resource="http://creativecommons.org/ns#DerivativeWorks" />
        <cc:requires
           rdf:resource="http://creativecommons.org/ns#ShareAlike" />
      </cc:License>
    </rdf:RDF>
  </metadata>
  <defs
     id="defs2458" />
  <sodipodi:namedview
     pagecolor="#ffffff"
     bordercolor="#666666"
     borderopacity="1"
     objecttolerance="10"
     gridtolerance="10"
     guidetolerance="10"
     inkscape:pageopacity="0"
     inkscape:pageshadow="2"
     inkscape:window-width="1598"
     inkscape:window-height="837"
     id="namedview2456"
     showgrid="false"
     inkscape:zoom="3.0062"
     inkscape:cx="45.24"
     inkscape:cy="23.785"
     inkscape:window-x="0"
     inkscape:window-y="0"
     inkscape:window-maximized="1"
     inkscape:current-layer="svg2454"
     inkscape:pagecheckerboard="0"
     width="100px" />
  <path
     d="M 1.5563,2.1391 H 98.444 V 97.861 H 1.5563 Z"
     id="path2448"
     inkscape:connector-curvature="0"
     style="fill:#ffffff;fill-opacity:1;stroke-width:1;stroke:none;stroke-miterlimit:4;stroke-dasharray:none" />
  <path
     fill="#000000"
     d="M 0.39552,0.39546 V 99.605 H 99.604 V 0.39546 Z M 4.5303,4.5321 H 95.467 V 95.47 H 4.5303 Z m 5.168,45.4669 a 40.305,40.305 0 0 0 20.1517,34.905 40.313,40.313 0 0 0 40.309,0 40.314,40.314 0 0 0 20.152,-34.905 z"
     id="path2450" />
</svg>
